X:1
T:French Suite III (A = 415 Hz)
T:BWV 814
T:J. S. Bach
%%score { ( 1 3 5 ) | ( 2 4 6 ) }
L:1/8
Q:1/4=100
M:4/4
K:D
V:1 treble 
V:3 treble 
V:5 treble 
V:2 bass 
V:4 bass 
V:6 bass 
V:1
"^Alemande" F/B/^A/ | B/4^A/4Bc/ d/B/e/B/ fB- B/B/e/d/ | g/e/^a/b/ c/g/f/e/ d/f/B/^A/ B/d/G/F/ | %3
 Gb- b/g/e/d/ c/e/A/G/ A/c/F/E/ | Fa- a/f/d/c/ B/d/G/F/ G/B/e/d/ | e>E F/A/d/c/ d>B e/g/b/c/ | %6
 d/F/B/^A/ B2- B/A/e/d/ e2- | e/d/^g/f/ g2- g/c/f/^e/ f/a/g/f/ | ^ec f>=e d/F/B/A/ B2- | %9
 B/A/^G/B/ ^E/d/c/B/ A/E/F/B/ F/4G/4A/4G/4A/4G/4F/ | F4- F/B/e/d/ e/_B/d/c/ | %11
 d/^G/c/B/ c2- c/F/d/c/ ^E>F | F4- F2 z/ F/B/^A/ | B/4^A/4Bc/ d/B/e/B/ fB- B/B/e/d/ | %14
 g/e/^a/b/ c/g/f/e/ d/f/B/^A/ B/d/G/F/ | Gb- b/g/e/d/ c/e/A/G/ A/c/F/E/ | %16
 Fa- a/f/d/c/ B/d/G/F/ G/B/e/d/ | e>E F/A/d/c/ d>B e/g/b/c/ | d/F/B/^A/ B2- B/A/e/d/ e2- | %19
 e/d/^g/f/ g2- g/c/f/^e/ f/a/g/f/ | ^ec f>=e d/F/B/A/ B2- | %21
 B/A/^G/B/ ^E/d/c/B/ A/E/F/B/ F/4G/4A/4G/4A/4G/4F/ | F4- F/B/e/d/ e/_B/d/c/ | %23
 d/^G/c/B/ c2- c/F/d/c/ ^E>F | F4- F2 z/ c/^G/B/ | ^A>c F/f/c/e/ d>f B/b/f/a/ | %26
 g/e/B/d/ =c/g/f/a/ ^dB z/ e/B/=d/ | =c/e/A/c/ B/e/G/B/ A/e/F/A/ G/e/E/G/ | %28
 F/e/^d/a/ g/4f/4g/4f/4g/4f/4e/ e2- e/g/B/=d/ | c>e A/a/e/g/ f2- f/d/^A/c/ | %30
 B>d G/g/d/f/ e2- e/c/^G/B/ | ^A>c F/f/c/e/ d2- d/B/F/=A/ | G/B/E/d/ c/e/g/B/ ^A/c/F- F/B/F/=A/ | %33
 G/B/E/G/ F/B/D/F/ E/B/C/E/ D/B/B,/D/ | C/B/^A/e/ d/4c/4B/4c/4d/4c/4B/ B/G/f/^d/ e2- | %35
 e/B/^g/^e/ f>=e d/c/d/B/ ^A>B | B4- B2 z/ c/^G/B/ | ^A>c F/f/c/e/ d>f B/b/f/a/ | %38
 g/e/B/d/ =c/g/f/a/ ^dB z/ e/B/=d/ | =c/e/A/c/ B/e/G/B/ A/e/F/A/ G/e/E/G/ | %40
 F/e/^d/a/ g/4f/4g/4f/4g/4f/4e/ e2- e/g/B/=d/ | c>e A/a/e/g/ f2- f/d/^A/c/ | %42
 B>d G/g/d/f/ e2- e/c/^G/B/ | ^A>c F/f/c/e/ d2- d/B/F/=A/ | G/B/E/d/ c/e/g/B/ ^A/c/F- F/B/F/=A/ | %45
 G/B/E/G/ F/B/D/F/ E/B/C/E/ D/B/B,/D/ | C/B/^A/e/ d/4c/4B/4c/4d/4c/4B/ B/G/f/^d/ e2- | %47
 e/B/^g/^e/ f>=e d/c/d/B/ ^A>B | !fermata!B4- B2 z/ z3/2 |[M:6/4][Q:1/4=160]"^Courante" z8 z2 z f | %50
 f6- fgfefc | d6- ddcBce | ^A6 B2 A/4B/4c/4B/4c/4B/4c/4B/4 c/4B/4c/4B/4A/B/ |{B} e3 fdc de c3 f | %54
 d3 cBc dgfefd | a6- aedcdb |{d} c6 !arpeggio!f2 e/4d/4e/4d/4e/4d/4e/4d/4 e/4d/4e/4d/4 c | %57
 d3 c B2- BA^GFGB | ^E6 !arpeggio!c2 d/4c/4d/4c/4d/4c/4d/4c/4 d/4c/4d/4c/4^B/=c/- | c6- c2 B3 A | %60
 ^e3 e f3 ^g g3 f | f6- [Acf]4 z f | f6- fgfefc | d6- ddcBce | %64
 ^A6 B2 A/4B/4c/4B/4c/4B/4c/4B/4 c/4B/4c/4B/4A/B/ |{B} e3 fdc de c3 f | d3 cBc dgfefd | %67
 a6- aedcdb |{d} c6 !arpeggio!f2 e/4d/4e/4d/4e/4d/4e/4d/4 e/4d/4e/4d/4 c | d3 c B2- BA^GFGB | %70
 ^E6 !arpeggio!c2 d/4c/4d/4c/4d/4c/4d/4c/4 d/4c/4d/4c/4^B/=c/- | c6- c2 B3 A | ^e3 e f3 ^g g3 f | %73
 f6- [Acf]4 z c | c6- cdcBc^A | B3 c dedc dB e2 | c3 B A2- Abagaf | b3 a g2 fe f3 g | %78
 a3 ^d efef e/4[ff]/4g/4[ff]/4g/4[ff]/4g/4[ff]/4 g/4[ff]/4g/4[ff]/4 e/f/ | gagfge f2 ^d3 e | %80
 [Be-]6 efedeg | c3 d e3 dcBce | A3 B =cd cBcA d2 | B3 c^de fg fB a2 | g3 f e2 dc d3 e | %85
 f3 ^A Bc Bc d/4c/4B/4c/4d/4c/4d/4c/4 d/4c/4d/4c/4 B/c/ | dedc dB c2 ^A3 B | B6- B2 c2 de | %88
 Fedc dB- B2 c3 B | B6- [FB]4 z c | c6- cdcBc^A | B3 c dedc dB e2 | c3 B A2- Abagaf | %93
 b3 a g2 fe f3 g | a3 ^d efef e/4[ff]/4g/4[ff]/4g/4[ff]/4g/4[ff]/4 g/4[ff]/4g/4[ff]/4 e/f/ | %95
 gagfge f2 ^d3 e | [Be-]6 efedeg | c3 d e3 dcBce | A3 B =cd cBcA d2 | B3 c^de fg fB a2 | %100
 g3 f e2 dc d3 e | f3 ^A Bc Bc d/4c/4B/4c/4d/4c/4d/4c/4 d/4c/4d/4c/4 B/c/ | dedc dB c2 ^A3 B | %103
 B6- B2 c2 de | FedcdB- B2 c3 B | B6- [FB]4 z z |[M:3/4] z6 |[Q:1/4=100]"^Sarabande" Bd fb- b^a | %108
 bf e/d/c/B/- B^A | Bg- g/f/e/f/- f/e/d/e/ | e/4d/4e3/2- e4- | e/d/c/B/ c/A/G/A/ B/c/d/e/ | %112
 A/F/E/F/ G/A/B/c/ d/e/f/g/ | a/b/c/d/ F/E/F/d/ G/F/G/E/ | D>A, D4 | Bd fb- b^a | %116
 bf e/d/c/B/- B^A | Bg- g/f/e/f/- f/e/d/e/ | e/4d/4e3/2- e4- | e/d/c/B/ c/A/G/A/ B/c/d/e/ | %120
 A/F/E/F/ G/A/B/c/ d/e/f/g/ | a/b/c/d/ F/E/F/d/ G/F/G/E/ | D>A, D4 | F4 F/4A/4A/4G/4A/4G/4F/4G/4 | %124
 A3 B/c/ d/e/f/d/ | f/d/c/B/ e/A/^G/A/ d/G/F/G/ | E/^G/B/d/ [Ac]4 | z2 b2 a2- | a2 ^g2 f2- | %129
 f2 f2 ^e2 | f6 | =c/B/c/f/ a/g/a/=c'/ b/a/g/f/ | e/^d/f/a/ g4 | f2 ^e2 f2 | %134
 ^g2- g/f/^e/g/ f/=e/d/c/ | d/B/^A/B/ F/B/c/d/ E/c/d/e/ | f/d/c/d/ B/e/f/g/ c/g/f/e/ | %137
 d/b/g/e/ f/B/^A/B/ F/B/c/A/ | B>F B4 | F4 F/4A/4A/4G/4A/4G/4F/4G/4 | A3 B/c/ d/e/f/d/ | %141
 f/d/c/B/ e/A/^G/A/ d/G/F/G/ | E/^G/B/d/ [Ac]4 | z2 b2 a2- | a2 ^g2 f2- | f2 f2 ^e2 | f6 | %147
 =c/B/c/f/ a/g/a/=c'/ b/a/g/f/ | e/^d/f/a/ g4 | f2 ^e2 f2 | ^g2- g/f/^e/g/ f/=e/d/c/ | %151
 d/B/^A/B/ F/B/c/d/ E/c/d/e/ | f/d/c/d/ B/e/f/g/ c/g/f/e/ | d/b/g/e/ f/B/^A/B/ F/B/c/A/ | %154
 B>F !fermata!B4 |[M:4/4] z8 |[Q:1/4=180]"^Anglaise" F2 B^A BcdB | g2 gf e2 d2 | c2 B^A Bcde | %159
 f2 ed edcB | dcB^A BcdB | g2 gf e2 fg | a2 c2 dcBA | gfef d4 | F2 B^A BcdB | g2 gf e2 d2 | %166
 c2 B^A Bcde | f2 ed edcB | dcB^A BcdB | g2 gf e2 fg | a2 c2 dcBA | gfef d4 | A2 dc defd | %173
 G2 GF G2 e2 | GFEF ^GABc | dcBe dcBA | c2 f^e f^gaf | ba^gf ^e^df=f | ^dc f2 BA^GA | F8 | %180
 a2 ^dc defd | baga b4- | b2 cB cdec | agfg a4- | a2 B^A B2 g2 | ^ABcd e2 G2- | GFEF dB^AB | %187
 edcB c2 F2- | F2 B^A BcdB | g2 gf e2 d2 | c2 B^A Bcde | fedc edcB | dcB^A gfe^d | agfe b^a^gf | %194
 b2 f2 e/4d/4e/4d/4e/4d/4e/4d/4 cB | B8 | A2 dc defd | G2 GF G2 e2 | GFEF ^GABc | dcBe dcBA | %200
 c2 f^e f^gaf | ba^gf ^e^df=f | ^dc f2 BA^GA | F8 | a2 ^dc defd | baga b4- | b2 cB cdec | %207
 agfg a4- | a2 B^A B2 g2 | ^ABcd e2 G2- | GFEF dB^AB | edcB c2 F2- | F2 B^A BcdB | g2 gf e2 d2 | %214
 c2 B^A Bcde | fedc edcB | dcB^A gfe^d | agfe b^a^gf | b2 f2 e/4d/4e/4d/4e/4d/4e/4d/4 cB | %219
 !fermata!B8 |[M:3/4] z6 |"^Menuet" df bf cf | df Bf ^Af | Bf bf cf | df Bf ^Af | df dB ge | %226
 ce cA fd | Bf ed cB | ^AF Ac fe | df bf cf | df Bf ^Af | Bf bf cf | df Bf ^Af | df dB ge | %234
 ce cA ae | fa fd Ac | d6 | df bf cf | df Bf ^Af | Bf bf cf | df Bf ^Af | df dB ge | ce cA fd | %243
 Bf ed cB | ^AF Ac fe | df bf cf | df Bf ^Af | Bf bf cf | df Bf ^Af | df dB ge | ce cA ae | %251
 fa fd Ac | d6 | ag fe dc | de fd eg | fg a2 c2 | de f2 e2 | f2 b2 ^g2 | Bc d2 c2 | BA ^GF G^E | %260
 F6 | A3 B/=c/ B2 | AG AF GE | B3 c/d/ c2 | B^A B^G AF | c^A FA ce | gc fc ec | dc Bd fb | %268
 fB eB dB | cB dB eB | fB gB eB |{e} f2 ed cd | B6 | ag fe dc | de fd eg | fg a2 c2 | de f2 e2 | %277
 f2 b2 ^g2 | Bc d2 c2 | BA ^GF G^E | F6 | A3 B/=c/ B2 | AG AF GE | B3 c/d/ c2 | B^A B^G AF | %285
 c^A FA ce | gc fc ec | dc Bd fb | fB eB dB | cB dB eB | fB gB eB |{e} f2 ed cd | B6 | %293
"^Trio" FG A2 GA/4G/4A/4G/4 | A/4G/4A/4B/4=c B2 A2 | G2 BA GF | AG FG EG | ^AB cA Bd | e/f/g f3 e | %299
 dc ed cB | f6 | FG A2 GA/4G/4A/4G/4 | A/4G/4A/4B/4=c B2 A2 | G2 BA GF | AG FG EG | ^AB cA Bd | %306
 e/f/g f3 e | dc ed cB | f6 | a2 f2 e2 | ^d6 | e2 f2 g2 | cB dc BA | de fd eg | b2 a2 g2 | %315
 fe gf ef | d6 | ag f2 g2 | e2 f2 g2 | f2 ed cB | B^A ^GA FA | cd ec df | g2 f2 e2 | dc ed cd | %324
 B6 | a2 f2 e2 | ^d6 | e2 f2 g2 | cB dc BA | de fd eg | b2 a2 g2 | fe gf ef | d6 | ag f2 g2 | %334
 e2 f2 g2 | f2 ed cB | B^A ^GA FA | cd ec df | g2 f2 e2 | dc ed cd | B6 | %341
"^Menuet da capo" df bf cf | df Bf ^Af | Bf bf cf | df Bf ^Af | df dB ge | ce cA fd | Bf ed cB | %348
 ^AF Ac fe | df bf cf | df Bf ^Af | Bf bf cf | df Bf ^Af | df dB ge | ce cA ae | fa fd Ac | d6 | %357
 ag fe dc | de fd eg | fg a2 c2 | de f2 e2 | f2 b2 ^g2 | Bc d2 c2 | BA ^GF G^E | F6 | A3 B/=c/ B2 | %366
 AG AF GE | B3 c/d/ c2 | B^A B^G AF | c^A FA ce | gc fc ec | dc Bd fb | fB eB dB | cB dB eB | %374
 fB gB eB |{e} f2 ed cd | B6 |[M:3/8]"^Gigue"[Q:3/8=80] z2 B | F2 B/4c/4d/ | c/4B/4c3/2 f | %380
 ef/e/d/c/ | d/c/B/d/f/d/ | b/f/d/B/f/d/ | g/e/B/e/g/e/ | a/e/c/A/e/c/ | f/d/A/d/f/d/ | %386
 g/d/f/d/e/d/ | a/d/g/d/f/d/ | bag | fed | e/d/c/e/B/e/ | A/e/G/e/F/d/ | E/d/c/B/A/G/ | %393
 F/E/D/E/F/G/ | A/D/F/A/d- | d/B/^G/E/c/A/ | f/d/a/4^g/4a/4g/4a/4g/4f/4g/4 | aAa | Ba/^g/a/b/ | %399
 ^g3- | gA/^g/a/g/ | f/^e/ f2- | f/a/^g/f/^e/f/ | ^e/^g/c/B/A/f/ | dcB | A^GF | B/f/A/f/^G/f/ | %407
 c/f/B/f/A/f/ | b/a/^g/b/f/b/ | ^e/b/d/b/c/a/ | B/^g/ c^e | f2 B | F2 B/4c/4d/ | c/4B/4c3/2 f | %414
 ef/e/d/c/ | d/c/B/d/f/d/ | b/f/d/B/f/d/ | g/e/B/e/g/e/ | a/e/c/A/e/c/ | f/d/A/d/f/d/ | %420
 g/d/f/d/e/d/ | a/d/g/d/f/d/ | bag | fed | e/d/c/e/B/e/ | A/e/G/e/F/d/ | E/d/c/B/A/G/ | %427
 F/E/D/E/F/G/ | A/D/F/A/d- | d/B/^G/E/c/A/ | f/d/a/4^g/4a/4g/4a/4g/4f/4g/4 | aAa | Ba/^g/a/b/ | %433
 ^g3- | gA/^g/a/g/ | f/^e/ f2- | f/a/^g/f/^e/f/ | ^e/^g/c/B/A/f/ | dcB | A^GF | B/f/A/f/^G/f/ | %441
 c/f/B/f/A/f/ | b/a/^g/b/f/b/ | ^e/b/d/b/c/a/ | B/^g/ c^e | f2 c | B/^A/^G/F/f/A/ | B/c/ d2- | %448
 d/c/B/A/e/B/ | cAc | d/A/F/D/A/F/ | B/G/d/B/g/d/ | e/B/^G/E/B/G/ | c/A/e/c/a/e/ | f/c/^A/F/c/A/ | %455
 d/B/f/d/b/^d/ | a/e/g/e/f/e/ | b/e/a/e/g/e/ | =c'ba | gfe | f/e/^d/f/=c/f/ | B/f/A/f/G/e/ | %462
 F/A/e/^d/c/d/ | e2 e | d/c/B/A/a/c/ | d/e/ f2- | f/d/c/B/g/B/ | c/d/ e2- | e/c/B/^A/f/A/ | %469
 B/c/ d2- | d/G/F/E/d/c/ | B/^A/^G/F/G/A/ | B/e/B/d/B/c/ | B/f/B/e/B/d/ | gfe | dcB | %476
 e/d/c/e/B/e/ | ^A/e/G/e/F/d/ | E/c/ F^A | B2 c | B/^A/^G/F/f/A/ | B/c/ d2- | d/c/B/A/e/B/ | cAc | %484
 d/A/F/D/A/F/ | B/G/d/B/g/d/ | e/B/^G/E/B/G/ | c/A/e/c/a/e/ | f/c/^A/F/c/A/ | d/B/f/d/b/^d/ | %490
 a/e/g/e/f/e/ | b/e/a/e/g/e/ | =c'ba | gfe | f/e/^d/f/=c/f/ | B/f/A/f/G/e/ | F/A/e/^d/c/d/ | e2 e | %498
 d/c/B/A/a/c/ | d/e/ f2- | f/d/c/B/g/B/ | c/d/ e2- | e/c/B/^A/f/A/ | B/c/ d2- | d/G/F/E/d/c/ | %505
 B/^A/^G/F/G/A/ | B/e/B/d/B/c/ | B/f/B/e/B/d/ | gfe | dcB | e/d/c/e/B/e/ | ^A/e/G/e/F/d/ | %512
 E/c/ F^A | !fermata!B2 z |] %514
V:2
 z/ z | z/ F,/B,/^A,/ B,C D/B,/G/F/ G/4F/4GF/ | EC FF, B,C DB, | E,/B,/E/D/ CB, A,G, F,E, | %4
 D,/A,/D/C/ B,A, G,F, E,D, | C,/E,/A,/G,/ A,>F, B,,/F,/B,/A,/ G,A, | %6
 D,2- D,/B,,/G,/F,/ G,C,- C,/F,/B,/^A,/ | B,B,,- B,,/^E,/A,/^G,/ A,2- A,/F,/B,/A,/ | %8
 B,/D/C/B,/ A,/F,/B,/^A,/ B,=A, ^G,/^E,/D/C/ | DB, ^G,^E, F,B,, C,C,, | %10
 z/ F,/E/D/ E/F,/D/C/ D/F,/C/B,/ C/F,/B,/^A,/ | B,2- B,/^E,/A,/^G,/ A,F, CC, | %12
 z ^A,- A,/B,/A,/G,/ A,2 z/ z/ z | z/ F,/B,/^A,/ B,C D/B,/G/F/ G/4F/4GF/ | EC FF, B,C DB, | %15
 E,/B,/E/D/ CB, A,G, F,E, | D,/A,/D/C/ B,A, G,F, E,D, | C,/E,/A,/G,/ A,>F, B,,/F,/B,/A,/ G,A, | %18
 D,2- D,/B,,/G,/F,/ G,C,- C,/F,/B,/^A,/ | B,B,,- B,,/^E,/A,/^G,/ A,2- A,/F,/B,/A,/ | %20
 B,/D/C/B,/ A,/F,/B,/^A,/ B,=A, ^G,/^E,/D/C/ | DB, ^G,^E, F,B,, C,C,, | %22
 z/ F,/E/D/ E/F,/D/C/ D/F,/C/B,/ C/F,/B,/^A,/ | B,2- B,/^E,/A,/^G,/ A,F, CC, | %24
 z ^A,- A,/B,/A,/G,/ A,2 z/ z/ z | z/ F/C/E/ D^A, z/ B,/F,/=A,/ G,^D, | %26
 E,G, A,=C z/ B,/F,/A,/ G,E, | A,F, G,E, =CA, B,G, | A,F, B,,/B,/F,/A,/ G,/B,/^D,/F,/ E,G, | %29
 A,/A/E/G/ FC z/ D/^A,/C/ B,F, | G,/G/D/F/ EB, z/ C/^G,/B,/ B,F, | %31
 F,/F/C/E/ D^A, z/ B,/F,/=A,/ G,^D, | E,G, E,C, z/ F,/C,/E,/ D,B,, | E,C, D,B,, G,E, F,D, | %34
 E,C, F,F,, G,,2- G,,/E,,/C,/^A,,/ | B,,2- B,,/^A,,/E,/C,/ G,E, F,F,, | %36
 z/ A,/G,/F,/ G,F,/E,/ F,2 z/ z/ z | z/ F/C/E/ D^A, z/ B,/F,/=A,/ G,^D, | %38
 E,G, A,=C z/ B,/F,/A,/ G,E, | A,F, G,E, =CA, B,G, | A,F, B,,/B,/F,/A,/ G,/B,/^D,/F,/ E,G, | %41
 A,/A/E/G/ FC z/ D/^A,/C/ B,F, | G,/G/D/F/ EB, z/ C/^G,/B,/ B,F, | %43
 F,/F/C/E/ D^A, z/ B,/F,/=A,/ G,^D, | E,G, E,C, z/ F,/C,/E,/ D,B,, | E,C, D,B,, G,E, F,D, | %46
 E,C, F,F,, G,,2- G,,/E,,/C,/^A,,/ | B,,2- B,,/^A,,/E,/C,/ G,E, F,F,, | %48
 z/ A,/G,/F,/ G,F,/E,/ !fermata!F,2 z/ z3/2 |[M:6/4] z8 z2 z z | z EDCDB, ^A,2 C2 F,2 | %51
 B,2 D2 B,2 E,2 G,2 E,2 | F,2 z2 z2 z6 | CB,^A,^G,A,F, B,E, F,2 F,,2 | %54
 z[I:staff -1] G[I:staff +1]FEFD B,EDCDB, | F,B,A,G,A,F, z2 A,2 ^G,2 | %56
 A,6[I:staff -1] !arpeggio!F2[I:staff +1] z4 | B,,A,^G,F,G,B, =F,CB,A,B,D | %58
 z C,B,,A,,B,,^G,, A,,B,,A,,G,,A,,F,, | ^E,,F,,E,,^D,,E,,C,, F,,E,D,C,D,A,, | %60
 B,,B,A,^G,A,F, DB, C2 C,2 | z2 z2 C,2 F,4 z z | z EDCDB, ^A,2 C2 F,2 | B,2 D2 B,2 E,2 G,2 E,2 | %64
 F,2 z2 z2 z6 | CB,^A,^G,A,F, B,E, F,2 F,,2 | z[I:staff -1] G[I:staff +1]FEFD B,EDCDB, | %67
 F,B,A,G,A,F, z2 A,2 ^G,2 | A,6[I:staff -1] !arpeggio!F2[I:staff +1] z4 | %69
 B,,A,^G,F,G,B, =F,CB,A,B,D | z C,B,,A,,B,,^G,, A,,B,,A,,G,,A,,F,, | %71
 ^E,,F,,E,,^D,,E,,C,, F,,E,D,C,D,A,, | B,,B,A,^G,A,F, DB, C2 C,2 | z2 z2 C,2 F,4 z z | %74
 F,2 F,,2 F,2 E,F,E,D,E,C, | D,3 C, B,,F, B,A, ^G,F, G,E, | A,,E,A,G,F,E, F,D, D3 D, | %77
 G,F,G,A,B,G, =C3 B,A,G, | F,G,A,F, G,=C B,A, B,^C^DB, | E3 D=CB, CA, B,2 B,,2 | %80
 E,A,G,F,G,E, ^CDCB,CA, |[I:staff -1] GAGFGE F6- | F[I:staff +1]B,A,G,A,F, DG,F,E,F,D, | %83
 G,B,A,G,F,E, ^D,E,D,C,D,B,, | E,^D,E,F,G,E, A,2- A,G,F,E, | D,E,D,C,D,B,, G,F, E,D,E,F, | %86
 B,,F,B,A,G,F, E,C,F,E,F,F,, | G,,B,,C,^D, E,2- E,F,E,=D,E,C, | ^A,2 F,2 B,2 E,2 F,2 F,,2 | %89
 z2 D,2 F,2 B,4 z z | F,2 F,,2 F,2 E,F,E,D,E,C, | D,3 C, B,,F, B,A, ^G,F, G,E, | %92
 A,,E,A,G,F,E, F,D, D3 D, | G,F,G,A,B,G, =C3 B,A,G, | F,G,A,F, G,=C B,A, B,^C^DB, | %95
 E3 D=CB, CA, B,2 B,,2 | E,A,G,F,G,E, ^CDCB,CA, |[I:staff -1] GAGFGE F6- | %98
 F[I:staff +1]B,A,G,A,F, DG,F,E,F,D, | G,B,A,G,F,E, ^D,E,D,C,D,B,, | E,^D,E,F,G,E, A,2- A,G,F,E, | %101
 D,E,D,C,D,B,, G,F, E,D,E,F, | B,,F,B,A,G,F, E,C,F,E,F,F,, | G,,B,,C,^D, E,2- E,F,E,=D,E,C, | %104
 ^A,2 F,2 B,2 E,2 F,2 F,,2 | z2 D,2 F,2 B,4 z z |[M:3/4] z6 | B,4 C2 | D4 C2 | B,2 A,2 G,2 | %110
 F,4 ^A,2 | B,2 A,2 G,2 | F,2 E,2 F,2 | G,2 A,G, A,2 | z/ E,/F,- F,3/2 z/ z2 | B,4 C2 | D4 C2 | %117
 B,2 A,2 G,2 | F,4 ^A,2 | B,2 A,2 G,2 | F,2 E,2 F,2 | G,2 A,G, A,2 | z/ E,/F,- F,3/2 z/ z2 | %123
 z F, A,D- DC | z D3- DC | D,D- D/C/B,/CB,/A,/B,/ | A,2- A,^G,/A,/ B,/G,/A,/F,/ | %127
 ^E,/^G,/A,/B,/ A,/G,/F,/E,/ F,/G,/A,/F,/ | C,/^E,/F,/^G,/ F,/E,/^D,/C,/ =D,/=E,/F,/D,/ | %129
 B,,C,/D,/ C,/B,,/A,,/^G,,/ C,C,, | z A,, C,F,- F,G, | A,2 B,2 =C2- | %132
 C2 B,/A,/=C/B,/ A,/G,/F,/E,/ | D,/C,/D,/F,/ B,/^A,/B,/D/ C/B,/=A,/^G,/ | %134
 F,/^E,/^G,/B,/- B,B, ^A,2 | z D, F,B,- B,^A, | B,F,- F,2 G,2 | F,^A, B,C DE- | %138
 E/C/D- D[I:staff -1] D- D2 |[I:staff +1] z F, A,D- DC | z D3- DC | D,D- D/C/B,/CB,/A,/B,/ | %142
 A,2- A,^G,/A,/ B,/G,/A,/F,/ | ^E,/^G,/A,/B,/ A,/G,/F,/E,/ F,/G,/A,/F,/ | %144
 C,/^E,/F,/^G,/ F,/E,/^D,/C,/ =D,/=E,/F,/D,/ | B,,C,/D,/ C,/B,,/A,,/^G,,/ C,C,, | %146
 z A,, C,F,- F,G, | A,2 B,2 =C2- | C2 B,/A,/=C/B,/ A,/G,/F,/E,/ | %149
 D,/C,/D,/F,/ B,/^A,/B,/D/ C/B,/=A,/^G,/ | F,/^E,/^G,/B,/- B,B, ^A,2 | z D, F,B,- B,^A, | %152
 B,F,- F,2 G,2 | F,^A, B,C DE- | E/C/D- D[I:staff -1] !fermata!D- D2 |[M:4/4][I:staff +1] z8 | %156
 B,8- | B,4 G,4- | G,2 F,E, D,2 C,2 | D,2 E,2 F,2 B,,2 | B,8- | B,6 A,G, | F,2 E,2 F,2 G,2 | %163
 A,4 z2 D,2 | B,8- | B,4 G,4- | G,2 F,E, D,2 C,2 | D,2 E,2 F,2 B,,2 | B,8- | B,6 A,G, | %170
 F,2 E,2 F,2 G,2 | A,4 z2 D,2 | F,2 G,2 A,4 | B,4 A,4 | A,2 A,2 B,2 A,2- | A,2 ^G,2 A,2 E,2 | %176
 A,2 B,2 C4 | F,2 B,4 ^G,2 | ^E,2 F,4 E,2 | F,,2 F,E, F,^G,A,F, | ^D,2 F,2 B,2 A,2 | %181
 G,F,E,F, G,F,E,D, | C,2 E,2 A,2 G,2 | F,E,D,E, F,E,D,C, | B,,D,G,F, E,D,C,B,, | %185
 C,D,E,F, ^G,^A,B,A, | B,2 ^A,2 B,2 G,2 | z2 B,2 ^A,4- | A,2 F,2 B,4- | B,2 E,2 ^A,2 B,2 | %190
 C4 B,4- | B,2 ^A,2 B,2 z2 | G,2 F,2 E,2 G,2 | C,2 G,2 F,2 E,2 | EDCB, F2 F,2 | z2[I:staff -1] D6 | %196
[I:staff +1] F,2 G,2 A,4 | B,4 A,4 | A,2 A,2 B,2 A,2- | A,2 ^G,2 A,2 E,2 | A,2 B,2 C4 | %201
 F,2 B,4 ^G,2 | ^E,2 F,4 E,2 | F,,2 F,E, F,^G,A,F, | ^D,2 F,2 B,2 A,2 | G,F,E,F, G,F,E,D, | %206
 C,2 E,2 A,2 G,2 | F,E,D,E, F,E,D,C, | B,,D,G,F, E,D,C,B,, | C,D,E,F, ^G,^A,B,A, | %210
 B,2 ^A,2 B,2 G,2 | z2 B,2 ^A,4- | A,2 F,2 B,4- | B,2 E,2 ^A,2 B,2 | C4 B,4- | B,2 ^A,2 B,2 z2 | %216
 G,2 F,2 E,2 G,2 | C,2 G,2 F,2 E,2 | EDCB, F2 F,2 | z2[I:staff -1] !fermata!D6 | %220
[M:3/4][I:staff +1] z6 | B,,2 B,2 ^A,2 | B,2 D2 F2 | D2 B,2 ^A,2 | B,2 D,2 F,2 | B,,2 B,2 E,2 | %226
 A,,2 F,2 D,2 | G,,2 G,2 E,2 | F,G, F,E, D,C, | B,,2 B,2 ^A,2 | B,2 D2 F2 | D2 B,2 ^A,2 | %232
 B,2 D,2 F,2 | B,,2 B,2 E,2 | A,,2 A,2 C,2 | D,2 F,2 A,2 | D,F, A,F, D,F, | B,,2 B,2 ^A,2 | %238
 B,2 D2 F2 | D2 B,2 ^A,2 | B,2 D,2 F,2 | B,,2 B,2 E,2 | A,,2 F,2 D,2 | G,,2 G,2 E,2 | %244
 F,G, F,E, D,C, | B,,2 B,2 ^A,2 | B,2 D2 F2 | D2 B,2 ^A,2 | B,2 D,2 F,2 | B,,2 B,2 E,2 | %250
 A,,2 A,2 C,2 | D,2 F,2 A,2 | D,2 A,,2 D,,2 | F,A, DA, E,A, | F,A, D,A, C,A, | D,A, DA, E,A, | %256
 F,A, D,A, C,A, | D,F, D,B,, B,^G, | ^E,^G, C,G, E,G, | F,2 C2 C,2 | F,A, CA, F,A, | %261
 ^D,F, B,,F, D,F, | E,6 | ^E,^G, C,G, E,G, | F,4 z2 | F,2 C,2 ^A,,2 | F,,2 ^G,,2 ^A,,2 | %267
 B,,2 F,2 B,2 | D2 C2 B,2 | E,2 F,2 G,2 | D,2 E,2 C,2 | D,2 E,2 F,2 | B,2 F,2 B,,2 | %273
 F,A, DA, E,A, | F,A, D,A, C,A, | D,A, DA, E,A, | F,A, D,A, C,A, | D,F, D,B,, B,^G, | %278
 ^E,^G, C,G, E,G, | F,2 C2 C,2 | F,A, CA, F,A, | ^D,F, B,,F, D,F, | E,6 | ^E,^G, C,G, E,G, | %284
 F,4 z2 | F,2 C,2 ^A,,2 | F,,2 ^G,,2 ^A,,2 | B,,2 F,2 B,2 | D2 C2 B,2 | E,2 F,2 G,2 | D,2 E,2 C,2 | %291
 D,2 E,2 F,2 | B,2 F,2 B,,2 | B,6 | ^D,6 | E,2 A,,2 B,,2 | E,,2 B,,2 E,2 | G,6 | ^A,,6 | %299
 B,,2 A,,2 G,,2 | F,,6 | B,6 | ^D,6 | E,2 A,,2 B,,2 | E,,2 B,,2 E,2 | G,6 | ^A,,6 | %307
 B,,2 A,,2 G,,2 | F,,6 | F,G, A,2 G,2 | =C2 B,2 A,2 | G,F, A,G, F,E, | A,6- | A,6- | A,2 B,2 C2 | %315
 D2 G,2 A,2 | D,2 A,,2 D,,2 | D,E, F,E, F,G, | A,B, CB, ^A,C | D,2 G,2 E,2 | F,6- | F,6- | %322
 F,2 ^G,2 ^A,2 | B,2 E,2 F,2 | B,,6 | F,G, A,2 G,2 | =C2 B,2 A,2 | G,F, A,G, F,E, | A,6- | A,6- | %330
 A,2 B,2 C2 | D2 G,2 A,2 | D,2 A,,2 D,,2 | D,E, F,E, F,G, | A,B, CB, ^A,C | D,2 G,2 E,2 | F,6- | %337
 F,6- | F,2 ^G,2 ^A,2 | B,2 E,2 F,2 | B,,6 | B,,2 B,2 ^A,2 | B,2 D2 F2 | D2 B,2 ^A,2 | %344
 B,2 D,2 F,2 | B,,2 B,2 E,2 | A,,2 F,2 D,2 | G,,2 G,2 E,2 | F,G, F,E, D,C, | B,,2 B,2 ^A,2 | %350
 B,2 D2 F2 | D2 B,2 ^A,2 | B,2 D,2 F,2 | B,,2 B,2 E,2 | A,,2 A,2 C,2 | D,2 F,2 A,2 | %356
 D,2 A,,2 D,,2 | F,A, DA, E,A, | F,A, D,A, C,A, | D,A, DA, E,A, | F,A, D,A, C,A, | %361
 D,F, D,B,, B,^G, | ^E,^G, C,G, E,G, | F,2 C2 C,2 | F,A, CA, F,A, | ^D,F, B,,F, D,F, | E,6 | %367
 ^E,^G, C,G, E,G, | F,4 z2 | F,2 C,2 ^A,,2 | F,,2 ^G,,2 ^A,,2 | B,,2 F,2 B,2 | D2 C2 B,2 | %373
 E,2 F,2 G,2 | D,2 E,2 C,2 | D,2 E,2 F,2 | B,2 F,2 B,,2 |[M:3/8] z2 z | z z B, | F,2 D | C2 F | %381
 B,2 z | z z/ B,/D/B,/ | E/B,/G,/E,/B,/G,/ | C/A,/E,/A,/C/A,/ | D/A,/F,/D,/A,/F,/ | B,A,G, | %387
 F,E,D, | G,/D/F,/D/E,/D/ | A,/D/G,/D/F,/D/ | G,/F,/E,/G,/D,/G,/ | C,/G,/B,,/G,/A,,/F,/ | %392
 G,,/E,/ A,,C, | D,D,,A,, | F,,2 B,,/4C,/4D,/ | A,,/4^G,,/4A,,3/2 E, | D,E,/D,/C,/B,,/ | %397
 C,/B,,/A,,/B,,/C,/A,,/ | D,/B,,/F,,/D,,/D,/B,,/ | E,/B,,/^G,,/E,,/D,/B,,/ | C,/A,,/C,/E,/A,/C,/ | %401
 D,/A,,/D,/F,/A,/F,/ | B,/A,/B,/C/D/B,/ | C/B,/A,/C/F,/A,/ | B,/F,/A,/F,/^G,/F,/ | %405
 C/F,/B,/F,/A,/F,/ | DCB, | A,^G,F, | ^G,/F,/^E,/G,/D,/G,/ | C,/^G,/B,,/G,/A,,/F,/ | %410
 D,/B,,/ C,C,, | F,,2 z | z z B, | F,2 D | C2 F | B,2 z | z z/ B,/D/B,/ | E/B,/G,/E,/B,/G,/ | %418
 C/A,/E,/A,/C/A,/ | D/A,/F,/D,/A,/F,/ | B,A,G, | F,E,D, | G,/D/F,/D/E,/D/ | A,/D/G,/D/F,/D/ | %424
 G,/F,/E,/G,/D,/G,/ | C,/G,/B,,/G,/A,,/F,/ | G,,/E,/ A,,C, | D,D,,A,, | F,,2 B,,/4C,/4D,/ | %429
 A,,/4^G,,/4A,,3/2 E, | D,E,/D,/C,/B,,/ | C,/B,,/A,,/B,,/C,/A,,/ | D,/B,,/F,,/D,,/D,/B,,/ | %433
 E,/B,,/^G,,/E,,/D,/B,,/ | C,/A,,/C,/E,/A,/C,/ | D,/A,,/D,/F,/A,/F,/ | B,/A,/B,/C/D/B,/ | %437
 C/B,/A,/C/F,/A,/ | B,/F,/A,/F,/^G,/F,/ | C/F,/B,/F,/A,/F,/ | DCB, | A,^G,F, | %442
 ^G,/F,/^E,/G,/D,/G,/ | C,/^G,/B,,/G,/A,,/F,/ | D,/B,,/ C,C,, | F,,2 z | z2 F, | %447
 E,/D,/C,/B,,/B,/D,/ | E,/F,/ ^G,2 | A,/G,/F,/E,/A,/E,/ | F,/D,/F,/A,/D/A,/ | G,/D,/G,/B,/D/B,/ | %452
 ^G,/E,/G,/B,/E/B,/ | A,/E,/A,/C/E/C/ | ^A,/F,/A,/C/F/C/ | B,/D/C/B,/A,/G,/ | =CB,A, | G,F,E, | %458
 A,/E/G,/E/F,/E/ | B,/E/A,/E/G,/E/ | A,/G,/F,/A,/E,/A,/ | ^D,/A,/=C,/A,/B,,/G,/ | %462
 A,,/F,/B,,/G,/B,,/A,/ | E,/A,/G,/F,/G,/E,/ | A,A,,G,- | G,/F,/E,/D,/D/F,/ | G,/A,/ B,2- | %467
 B,/G,/F,/E,/C/E,/ | F,/G,/F,/E,/D,/C,/ | D,/E,/D,/C,/B,,/A,,/ | G,,B,,E, | F,,/F,/E,/D,/C,/B,,/ | %472
 G,F,E, | D,C,B,, | E,/B,/D,/B,/C,/B,/ | F,/B,/E,/B,/D,/B,/ | C/B,/^A,/C/G,/C/ | F,/C/E,/C/D,/B,/ | %478
 G,/E,/ F,F,, | B,,2 z | z2 F, | E,/D,/C,/B,,/B,/D,/ | E,/F,/ ^G,2 | A,/G,/F,/E,/A,/E,/ | %484
 F,/D,/F,/A,/D/A,/ | G,/D,/G,/B,/D/B,/ | ^G,/E,/G,/B,/E/B,/ | A,/E,/A,/C/E/C/ | ^A,/F,/A,/C/F/C/ | %489
 B,/D/C/B,/A,/G,/ | =CB,A, | G,F,E, | A,/E/G,/E/F,/E/ | B,/E/A,/E/G,/E/ | A,/G,/F,/A,/E,/A,/ | %495
 ^D,/A,/=C,/A,/B,,/G,/ | A,,/F,/B,,/G,/B,,/A,/ | E,/A,/G,/F,/G,/E,/ | A,A,,G,- | %499
 G,/F,/E,/D,/D/F,/ | G,/A,/ B,2- | B,/G,/F,/E,/C/E,/ | F,/G,/F,/E,/D,/C,/ | D,/E,/D,/C,/B,,/A,,/ | %504
 G,,B,,E, | F,,/F,/E,/D,/C,/B,,/ | G,F,E, | D,C,B,, | E,/B,/D,/B,/C,/B,/ | F,/B,/E,/B,/D,/B,/ | %510
 C/B,/^A,/C/G,/C/ | F,/C/E,/C/D,/B,/ | G,/E,/ F,F,, | !fermata!B,,2 z |] %514
V:3
 x3/2 | x8 | x8 | x8 | x8 | x8 | x8 | x8 | x8 | x8 | x8 | x8 | z/ E/D/C/ DC/B,/ C2 z/ z/ z | x8 | %14
 x8 | x8 | x8 | x8 | x8 | x8 | x8 | x8 | x8 | x8 | z/ E/D/C/ DC/B,/ C2 z/ x3/2 | x8 | x8 | x8 | %28
 x8 | x8 | x8 | x8 | x8 | x8 | x8 | x8 | z ^D- D/E/D/C/ D2 z/ z/ z | x8 | x8 | x8 | x8 | x8 | x8 | %43
 x8 | x8 | x8 | x8 | x8 | z ^D- D/E/D/C/ !fermata!D2 x2 |[M:6/4] x12 | d6 z6 | z cB^ABF G6- | %52
 GGFEF[I:staff +1]C DEDCDB, |[I:staff -1] z2 c4 B2 ^A4 | B3 z z8 | z gfedc d z z4 | %56
 z6 !arpeggio!c2 B3 ^A | B3 z z8 | C6 !arpeggio!F2 z4 | ^g3 bag ab g3 f | ^G3 z c3 z ^e3 f | %61
[I:staff +1] F,6[I:staff -1] F4 z z | d6 z6 | z cB^ABF G6- | GGFEF[I:staff +1]C DEDCDB, | %65
[I:staff -1] z2 c4 B2 ^A4 | B3 z z8 | z gfedc d z z4 | z6 !arpeggio!c2 B3 ^A | B3 z z8 | %70
 C6 !arpeggio!F2 z4 | ^g3 bag ab g3 f | ^G3 z c3 z ^e3 f |[I:staff +1] F,6[I:staff -1] F4 x2 | %74
 z B^A^GAF[I:staff +1] ^A,4[I:staff -1] z2 | z[I:staff +1] F, B,2[I:staff -1] z8 | x12 | %77
 z6 z2 ^d3 e | x12 | x12 | G6 z2 z4 | x12 | x12 | x12 | z4 z4 B3 c | d3 z z8 | x12 | %87
 B3 AGF GE- E4- | E z z2 z2 g2 ^A4 | z6 D4 z z | z B^A^GAF[I:staff +1] ^A,4[I:staff -1] z2 | %91
 z[I:staff +1] F, B,2[I:staff -1] z8 | x12 | z6 z2 ^d3 e | x12 | x12 | G6 z2 z4 | x12 | x12 | x12 | %100
 z4 z4 B3 c | d3 z z8 | x12 | B3 AGF GE- E4- | E z z2 z2 g2 ^A4 | z6 D4 x2 |[M:3/4] x6 | %107
[I:staff +1] D4 E2 | F4 E2 | D2 C2 B,2- | B,^A,C[I:staff -1]F- FF- | FG- GF- FE- | %112
 ED- D[I:staff +1]C- CD | DE CD- DC |[I:staff -1] z2 z/[I:staff +1] A,3/2- A,2 | D4 E2 | F4 E2 | %117
 D2 C2 B,2- | B,^A,C[I:staff -1]F- FF- | FG- GF- FE- | ED- D[I:staff +1]C- CD | DE CD- DC | %122
[I:staff -1] z2 z/[I:staff +1] A,3/2- A,2 | x6 | x6 | x6 |[I:staff -1] E2- E4 | d4 c2 | B4 A2 | %129
 ^G6 | A6 | x6 | z f e4 | B2 c2 d2- | d2 c4 | x6 | x6 | x6 | z z/ F/- F<F- F2 | x6 | x6 | x6 | %142
 E2- E4 | d4 c2 | B4 A2 | ^G6 | A6 | x6 | z f e4 | B2 c2 d2- | d2 c4 | x6 | x6 | x6 | %154
 z z/ F/- F<!fermata!F- F2 |[M:4/4] x8 |[I:staff +1] D2 C2 D2 F2 | E2 D2 C2 B,2 | E4 F,4 | %159
 B,4 ^A,2 B,2 |[I:staff -1] z2[I:staff +1] C2 D2 F2 | E2 D2 C4- | C2 E2 D4- | D2 C2 D4 | %164
 D2 C2 D2 F2 | E2 D2 C2 B,2 | E4 F,4 | B,4 ^A,2 B,2 |[I:staff -1] z2[I:staff +1] C2 D2 F2 | %169
 E2 D2 C4- | C2 E2 D4- | D2 C2 D4 | x8 | x8 | x8 | x8 | x8 | x8 | x8 | x8 | x8 | x8 | x8 | x8 | %184
 x8 | x8 | x8 | x8 | x8 | x8 | x8 | x8 | x8 | x8 | x8 |[I:staff -1] z F- F6 | x8 | x8 | x8 | x8 | %200
 x8 | x8 | x8 | x8 | x8 | x8 | x8 | x8 | x8 | x8 | x8 | x8 | x8 | x8 | x8 | x8 | x8 | x8 | x8 | %219
 z !fermata!F- F6 |[M:3/4] x6 | x6 | x6 | x6 | x6 | x6 | x6 | x6 | x6 | x6 | x6 | x6 | x6 | x6 | %234
 x6 | x6 | x6 | x6 | x6 | x6 | x6 | x6 | x6 | x6 | x6 | x6 | x6 | x6 | x6 | x6 | x6 | x6 | x6 | %253
 x6 | x6 | x6 | x6 | x6 | x6 | x6 | x6 | x6 | x6 | x6 | x6 | x6 | x6 | x6 | x6 | x6 | x6 | x6 | %272
 x6 | x6 | x6 | x6 | x6 | x6 | x6 | x6 | x6 | x6 | x6 | x6 | x6 | x6 | x6 | x6 | x6 | x6 | x6 | %291
 x6 | x6 | D2 ^D2 E2 | F6 | E4 ^D2 | E6 | z2 E2 D2 | z2 z c F2 | B6 | ^A6 | D2 ^D2 E2 | F6 | %303
 E4 ^D2 | E6 | z2 E2 D2 | z2 z c F2 | B6 | ^A6 | c2 =c2 B2 | BA AG GF | B6 | z2 E2 G2 | FG A2 G2- | %314
 G2 F2 E2 | D2 d2 c2 | d6 | fe d2 e2 | c2 d2 e2- | ed cB ^AB | z2[I:staff +1] B,2 ^A,2- | %321
 A,B, C^A, B,D | E2 D2 C2 | B,2[I:staff -1] B2 ^A2 | B6 | c2 =c2 B2 | BA AG GF | B6 | z2 E2 G2 | %329
 FG A2 G2- | G2 F2 E2 | D2 d2 c2 | d6 | fe d2 e2 | c2 d2 e2- | ed cB ^AB | %336
 z2[I:staff +1] B,2 ^A,2- | A,B, C^A, B,D | E2 D2 C2 | B,2[I:staff -1] B2 ^A2 | B6 | x6 | x6 | x6 | %344
 x6 | x6 | x6 | x6 | x6 | x6 | x6 | x6 | x6 | x6 | x6 | x6 | x6 | x6 | x6 | x6 | x6 | x6 | x6 | %363
 x6 | x6 | x6 | x6 | x6 | x6 | x6 | x6 | x6 | x6 | x6 | x6 | x6 | x6 |[M:3/8] x3 | x3 | x3 | x3 | %381
 x3 | x3 | x3 | x3 | x3 | x3 | x3 | x3 | x3 | x3 | x3 | x3 | x3 | x3 | x3 | x3 | x3 | x3 | x3 | %400
 x3 | x3 | x3 | x3 | x3 | x3 | x3 | x3 | x3 | x3 | x3 | x3 | x3 | x3 | x3 | x3 | x3 | x3 | x3 | %419
 x3 | x3 | x3 | x3 | x3 | x3 | x3 | x3 | x3 | x3 | x3 | x3 | x3 | x3 | x3 | x3 | x3 | x3 | x3 | %438
 x3 | x3 | x3 | x3 | x3 | x3 | x3 | x3 | x3 | x3 | x3 | x3 | x3 | x3 | x3 | x3 | x3 | x3 | x3 | %457
 x3 | x3 | x3 | x3 | x3 | x3 | x3 | x3 | x3 | x3 | x3 | x3 | x3 | x3 | x3 | x3 | x3 | x3 | x3 | %476
 x3 | x3 | x3 | x3 | x3 | x3 | x3 | x3 | x3 | x3 | x3 | x3 | x3 | x3 | x3 | x3 | x3 | x3 | x3 | %495
 x3 | x3 | x3 | x3 | x3 | x3 | x3 | x3 | x3 | x3 | x3 | x3 | x3 | x3 | x3 | x3 | x3 | x3 | x3 |] %514
V:4
 x3/2 | x8 | x8 | x8 | x8 | x8 | x8 | x8 | x8 | x8 | x8 | x8 | F,4- F,2 z/ z/ z | x8 | x8 | x8 | %16
 x8 | x8 | x8 | x8 | x8 | x8 | x8 | x8 | F,4- F,2 z/ x3/2 | x8 | x8 | x8 | x8 | x8 | x8 | x8 | x8 | %33
 x8 | x8 | x8 | B,,4- B,,2 z/ z/ z | x8 | x8 | x8 | x8 | x8 | x8 | x8 | x8 | x8 | x8 | x8 | %48
 !fermata!B,,4- B,,2 x2 |[M:6/4] x12 | x12 | x12 | x12 | x12 | B,,2 z2 z8 | z6 B,,6 | %56
 z F,E,D,E,C, ^A,,G,F,E,F,D, | x12 | x12 | x12 | x12 | z2 F,,4- F,,4 z z | x12 | x12 | x12 | x12 | %66
 B,,2 z2 z8 | z6 B,,6 | z F,E,D,E,C, ^A,,G,F,E,F,D, | x12 | x12 | x12 | x12 | z2 F,,4- F,,4 x2 | %74
 x12 | x12 | x12 | x12 | x12 | x12 | x12 | x12 | x12 | x12 | x12 | x12 | x12 | x12 | x12 | %89
 B,,6- B,,4 z z | x12 | x12 | x12 | x12 | x12 | x12 | x12 | x12 | x12 | x12 | x12 | x12 | x12 | %103
 x12 | x12 | B,,6- B,,4 x2 |[M:3/4] x6 | x6 | x6 | x6 | x6 | x6 | x6 | x6 | %114
 D,2- D,>D, A,,/F,,/D,, | x6 | x6 | x6 | x6 | x6 | x6 | x6 | D,2- D,>D, A,,/F,,/D,, | D,4 E,2 | %124
 F,2 A,F, E,2 | x6 | x6 | x6 | x6 | x6 | F,,4 E,2 | ^D,6 | E,6 | x6 | z/ ^E,3/2 F,4 | B,,4 C,2 | %136
 D,2 D,B,,- B,,^A,, | B,,C, D,E, F,2 | B,2- B,>B, F,/D,/B,, | D,4 E,2 | F,2 A,F, E,2 | x6 | x6 | %143
 x6 | x6 | x6 | F,,4 E,2 | ^D,6 | E,6 | x6 | z/ ^E,3/2 F,4 | B,,4 C,2 | D,2 D,B,,- B,,^A,, | %153
 B,,C, D,E, F,2 | B,2- B,>B, F,/D,/!fermata!B,, |[M:4/4] x8 | x8 | x8 | x8 | x8 | x8 | x8 | x8 | %163
 x8 | x8 | x8 | x8 | x8 | x8 | x8 | x8 | x8 | D,2 E,2 F,2 D,2- | D,2 D,2- D,C,B,,A,, | D,6 C,2 | %175
 B,,2 E,2 A,,4 | A,2 ^G,2 A,2 F,2 | D,4 C,2 B,,2- | B,,2 A,,B,, C,4 | x8 | x8 | x8 | x8 | x8 | x8 | %185
 x8 | x8 | F,6 E,2 | D,6 B,,2 | C,6 D,2 | E,2 F,2 G,2 F,E, | D,2 E,2 B,2 =A,2 | x8 | x8 | x8 | %195
 B,3 F, B,,4 | D,2 E,2 F,2 D,2- | D,2 D,2- D,C,B,,A,, | D,6 C,2 | B,,2 E,2 A,,4 | %200
 A,2 ^G,2 A,2 F,2 | D,4 C,2 B,,2- | B,,2 A,,B,, C,4 | x8 | x8 | x8 | x8 | x8 | x8 | x8 | x8 | %211
 F,6 E,2 | D,6 B,,2 | C,6 D,2 | E,2 F,2 G,2 F,E, | D,2 E,2 B,2 =A,2 | x8 | x8 | x8 | %219
 B,3 F, !fermata!B,,4 |[M:3/4] x6 | x6 | x6 | x6 | x6 | x6 | x6 | x6 | x6 | x6 | x6 | x6 | x6 | %233
 x6 | x6 | x6 | x6 | x6 | x6 | x6 | x6 | x6 | x6 | x6 | x6 | x6 | x6 | x6 | x6 | x6 | x6 | x6 | %252
 x6 | x6 | x6 | x6 | x6 | x6 | x6 | x6 | x6 | x6 | x6 | x6 | x6 | x6 | x6 | x6 | x6 | x6 | x6 | %271
 x6 | x6 | x6 | x6 | x6 | x6 | x6 | x6 | x6 | x6 | x6 | x6 | x6 | x6 | x6 | x6 | x6 | x6 | x6 | %290
 x6 | x6 | x6 | x6 | x6 | x6 | x6 | x6 | x6 | x6 | x6 | x6 | x6 | x6 | x6 | x6 | x6 | x6 | x6 | %309
 x6 | x6 | x6 | x6 | x6 | x6 | x6 | x6 | x6 | x6 | x6 | x6 | x6 | x6 | x6 | x6 | x6 | x6 | x6 | %328
 x6 | x6 | x6 | x6 | x6 | x6 | x6 | x6 | x6 | x6 | x6 | x6 | x6 | x6 | x6 | x6 | x6 | x6 | x6 | %347
 x6 | x6 | x6 | x6 | x6 | x6 | x6 | x6 | x6 | x6 | x6 | x6 | x6 | x6 | x6 | x6 | x6 | x6 | x6 | %366
 x6 | x6 | x6 | x6 | x6 | x6 | x6 | x6 | x6 | x6 | x6 |[M:3/8] x3 | x3 | x3 | x3 | x3 | x3 | x3 | %384
 x3 | x3 | x3 | x3 | x3 | x3 | x3 | x3 | x3 | x3 | x3 | x3 | x3 | x3 | x3 | x3 | x3 | x3 | x3 | %403
 x3 | x3 | x3 | x3 | x3 | x3 | x3 | x3 | x3 | x3 | x3 | x3 | x3 | x3 | x3 | x3 | x3 | x3 | x3 | %422
 x3 | x3 | x3 | x3 | x3 | x3 | x3 | x3 | x3 | x3 | x3 | x3 | x3 | x3 | x3 | x3 | x3 | x3 | x3 | %441
 x3 | x3 | x3 | x3 | x3 | x3 | x3 | x3 | x3 | x3 | x3 | x3 | x3 | x3 | x3 | x3 | x3 | x3 | x3 | %460
 x3 | x3 | x3 | x3 | x3 | x3 | x3 | x3 | x3 | x3 | x3 | x3 | x3 | x3 | x3 | x3 | x3 | x3 | x3 | %479
 x3 | x3 | x3 | x3 | x3 | x3 | x3 | x3 | x3 | x3 | x3 | x3 | x3 | x3 | x3 | x3 | x3 | x3 | x3 | %498
 x3 | x3 | x3 | x3 | x3 | x3 | x3 | x3 | x3 | x3 | x3 | x3 | x3 | x3 | x3 | x3 |] %514
V:5
 x3/2 | x8 | x8 | x8 | x8 | x8 | x8 | x8 | x8 | x8 | x8 | x8 | x8 | x8 | x8 | x8 | x8 | x8 | x8 | %19
 x8 | x8 | x8 | x8 | x8 | x8 | x8 | x8 | x8 | x8 | x8 | x8 | x8 | x8 | x8 | x8 | x8 | x8 | x8 | %38
 x8 | x8 | x8 | x8 | x8 | x8 | x8 | x8 | x8 | x8 | x8 |[M:6/4] x12 | B6 z6 | x12 | x12 | x12 | %54
 x12 | x12 | x12 | x12 | z6 !arpeggio!C2 z4 | x12 | x12 | x12 | B6 z6 | x12 | x12 | x12 | x12 | %67
 x12 | x12 | x12 | z6 !arpeggio!C2 z4 | x12 | x12 | x12 | x12 | x12 | x12 | x12 | x12 | x12 | x12 | %81
 x12 | x12 | x12 | x12 | x12 | x12 | x12 | x12 | x12 | x12 | x12 | x12 | x12 | x12 | x12 | x12 | %97
 x12 | x12 | x12 | x12 | x12 | x12 | x12 | x12 | x12 |[M:3/4] x6 | x6 | x6 | x6 | x6 | x6 | x6 | %113
 x6 | x6 | x6 | x6 | x6 | x6 | x6 | x6 | x6 | x6 | x6 | x6 | x6 | x6 | x6 | x6 | x6 | x6 | x6 | %132
 z/ ^d3/2 z4 | x6 | x6 | x6 | x6 | x6 | x6 | x6 | x6 | x6 | x6 | x6 | x6 | x6 | x6 | x6 | %148
 z/ ^d3/2 z4 | x6 | x6 | x6 | x6 | x6 | x6 |[M:4/4] x8 | x8 | x8 | x8 | x8 | x8 | x8 | x8 | x8 | %164
 x8 | x8 | x8 | x8 | x8 | x8 | x8 | x8 | x8 | x8 | x8 | x8 | x8 | x8 | x8 | x8 | x8 | x8 | x8 | %183
 x8 | x8 | x8 | x8 | x8 | x8 | x8 | x8 | x8 | x8 | x8 | x8 | x8 | x8 | x8 | x8 | x8 | x8 | x8 | %202
 x8 | x8 | x8 | x8 | x8 | x8 | x8 | x8 | x8 | x8 | x8 | x8 | x8 | x8 | x8 | x8 | x8 | x8 | %220
[M:3/4] x6 | x6 | x6 | x6 | x6 | x6 | x6 | x6 | x6 | x6 | x6 | x6 | x6 | x6 | x6 | x6 | x6 | x6 | %238
 x6 | x6 | x6 | x6 | x6 | x6 | x6 | x6 | x6 | x6 | x6 | x6 | x6 | x6 | x6 | x6 | x6 | x6 | x6 | %257
 x6 | x6 | x6 | x6 | x6 | x6 | x6 | x6 | x6 | x6 | x6 | x6 | x6 | x6 | x6 | x6 | x6 | x6 | x6 | %276
 x6 | x6 | x6 | x6 | x6 | x6 | x6 | x6 | x6 | x6 | x6 | x6 | x6 | x6 | x6 | x6 | x6 | x6 | x6 | %295
 x6 | x6 | x6 | x6 | x6 | x6 | x6 | x6 | x6 | x6 | x6 | x6 | x6 | x6 | x6 | x6 | x6 | x6 | x6 | %314
 x6 | x6 | x6 | x6 | x6 | x6 | x6 | x6 | x6 | x6 | x6 | x6 | x6 | x6 | x6 | x6 | x6 | x6 | x6 | %333
 x6 | x6 | x6 | x6 | x6 | x6 | x6 | x6 | x6 | x6 | x6 | x6 | x6 | x6 | x6 | x6 | x6 | x6 | x6 | %352
 x6 | x6 | x6 | x6 | x6 | x6 | x6 | x6 | x6 | x6 | x6 | x6 | x6 | x6 | x6 | x6 | x6 | x6 | x6 | %371
 x6 | x6 | x6 | x6 | x6 | x6 |[M:3/8] x3 | x3 | x3 | x3 | x3 | x3 | x3 | x3 | x3 | x3 | x3 | x3 | %389
 x3 | x3 | x3 | x3 | x3 | x3 | x3 | x3 | x3 | x3 | x3 | x3 | x3 | x3 | x3 | x3 | x3 | x3 | x3 | %408
 x3 | x3 | x3 | x3 | x3 | x3 | x3 | x3 | x3 | x3 | x3 | x3 | x3 | x3 | x3 | x3 | x3 | x3 | x3 | %427
 x3 | x3 | x3 | x3 | x3 | x3 | x3 | x3 | x3 | x3 | x3 | x3 | x3 | x3 | x3 | x3 | x3 | x3 | x3 | %446
 x3 | x3 | x3 | x3 | x3 | x3 | x3 | x3 | x3 | x3 | x3 | x3 | x3 | x3 | x3 | x3 | x3 | x3 | x3 | %465
 x3 | x3 | x3 | x3 | x3 | x3 | x3 | x3 | x3 | x3 | x3 | x3 | x3 | x3 | x3 | x3 | x3 | x3 | x3 | %484
 x3 | x3 | x3 | x3 | x3 | x3 | x3 | x3 | x3 | x3 | x3 | x3 | x3 | x3 | x3 | x3 | x3 | x3 | x3 | %503
 x3 | x3 | x3 | x3 | x3 | x3 | x3 | x3 | x3 | x3 | x3 |] %514
V:6
 x3/2 | x8 | x8 | x8 | x8 | x8 | x8 | x8 | x8 | x8 | x8 | x8 | x8 | x8 | x8 | x8 | x8 | x8 | x8 | %19
 x8 | x8 | x8 | x8 | x8 | x8 | x8 | x8 | x8 | x8 | x8 | x8 | x8 | x8 | x8 | x8 | x8 | x8 | x8 | %38
 x8 | x8 | x8 | x8 | x8 | x8 | x8 | x8 | x8 | x8 | x8 |[M:6/4] x12 | x12 | x12 | x12 | x12 | x12 | %55
 x12 | x12 | x12 | x12 | x12 | x12 | x12 | x12 | x12 | x12 | x12 | x12 | x12 | x12 | x12 | x12 | %71
 x12 | x12 | x12 | x12 | x12 | x12 | x12 | x12 | x12 | x12 | x12 | x12 | x12 | x12 | x12 | x12 | %87
 x12 | x12 | x12 | x12 | x12 | x12 | x12 | x12 | x12 | x12 | x12 | x12 | x12 | x12 | x12 | x12 | %103
 x12 | x12 | x12 |[M:3/4] x6 | x6 | x6 | x6 | x6 | x6 | x6 | x6 | z2 z F,- F,2 | x6 | x6 | x6 | %118
 x6 | x6 | x6 | x6 | z2 z F,- F,2 | x6 | x6 | x6 | x6 | x6 | x6 | x6 | x6 | x6 | x6 | x6 | x6 | %135
 x6 | x6 | x6 | x6 | x6 | x6 | x6 | x6 | x6 | x6 | x6 | x6 | x6 | x6 | x6 | x6 | x6 | x6 | x6 | %154
 x6 |[M:4/4] x8 | x8 | x8 | x8 | x8 | x8 | x8 | x8 | x8 | x8 | x8 | x8 | x8 | x8 | x8 | x8 | x8 | %172
 x8 | x8 | x8 | x8 | x8 | x8 | x8 | x8 | x8 | x8 | x8 | x8 | x8 | x8 | x8 | x8 | x8 | x8 | x8 | %191
 x8 | x8 | x8 | x8 | x8 | x8 | x8 | x8 | x8 | x8 | x8 | x8 | x8 | x8 | x8 | x8 | x8 | x8 | x8 | %210
 x8 | x8 | x8 | x8 | x8 | x8 | x8 | x8 | x8 | x8 |[M:3/4] x6 | x6 | x6 | x6 | x6 | x6 | x6 | x6 | %228
 x6 | x6 | x6 | x6 | x6 | x6 | x6 | x6 | x6 | x6 | x6 | x6 | x6 | x6 | x6 | x6 | x6 | x6 | x6 | %247
 x6 | x6 | x6 | x6 | x6 | x6 | x6 | x6 | x6 | x6 | x6 | x6 | x6 | x6 | x6 | x6 | x6 | x6 | x6 | %266
 x6 | x6 | x6 | x6 | x6 | x6 | x6 | x6 | x6 | x6 | x6 | x6 | x6 | x6 | x6 | x6 | x6 | x6 | x6 | %285
 x6 | x6 | x6 | x6 | x6 | x6 | x6 | x6 | x6 | x6 | x6 | x6 | x6 | x6 | x6 | x6 | x6 | x6 | x6 | %304
 x6 | x6 | x6 | x6 | x6 | x6 | x6 | x6 | x6 | x6 | x6 | x6 | x6 | x6 | x6 | x6 | x6 | x6 | x6 | %323
 x6 | x6 | x6 | x6 | x6 | x6 | x6 | x6 | x6 | x6 | x6 | x6 | x6 | x6 | x6 | x6 | x6 | x6 | x6 | %342
 x6 | x6 | x6 | x6 | x6 | x6 | x6 | x6 | x6 | x6 | x6 | x6 | x6 | x6 | x6 | x6 | x6 | x6 | x6 | %361
 x6 | x6 | x6 | x6 | x6 | x6 | x6 | x6 | x6 | x6 | x6 | x6 | x6 | x6 | x6 | x6 |[M:3/8] x3 | x3 | %379
 x3 | x3 | x3 | x3 | x3 | x3 | x3 | x3 | x3 | x3 | x3 | x3 | x3 | x3 | x3 | x3 | x3 | x3 | x3 | %398
 x3 | x3 | x3 | x3 | x3 | x3 | x3 | x3 | x3 | x3 | x3 | x3 | x3 | x3 | x3 | x3 | x3 | x3 | x3 | %417
 x3 | x3 | x3 | x3 | x3 | x3 | x3 | x3 | x3 | x3 | x3 | x3 | x3 | x3 | x3 | x3 | x3 | x3 | x3 | %436
 x3 | x3 | x3 | x3 | x3 | x3 | x3 | x3 | x3 | x3 | x3 | x3 | x3 | x3 | x3 | x3 | x3 | x3 | x3 | %455
 x3 | x3 | x3 | x3 | x3 | x3 | x3 | x3 | x3 | x3 | x3 | x3 | x3 | x3 | x3 | x3 | x3 | x3 | x3 | %474
 x3 | x3 | x3 | x3 | x3 | x3 | x3 | x3 | x3 | x3 | x3 | x3 | x3 | x3 | x3 | x3 | x3 | x3 | x3 | %493
 x3 | x3 | x3 | x3 | x3 | x3 | x3 | x3 | x3 | x3 | x3 | x3 | x3 | x3 | x3 | x3 | x3 | x3 | x3 | %512
 x3 | x3 |] %514

